src/assets/svg/icons/fa/nuevos/classic/light/user-doctor-hair classic light.svg

<svg xmlns="http://www.w3.org/2000/svg" viewBox="0 0 448 512"><!--! Font Awesome Pro 6.4.0 by @fontawesome - https://fontawesome.com License - https://fontawesome.com/license (Commercial License) Copyright 2023 Fonticons, Inc. --><path d="M320 128c0-5.5-.5-10.8-1.3-16H288.6c-14.9 0-29.1-5.9-39.6-16.4l-6.3-6.3C223.4 113.5 194 128 162.3 128L128 128v16c0 53 43 96 96 96s96-43 96-96V128zM228.7 52.7c6.2-6.2 16.4-6.2 22.6 0L271.6 73c4.5 4.5 10.6 7 17 7h18.6C290.6 51.3 259.5 32 224 32c-41.8 0-77.4 26.7-90.5 64h28.9c26.7 0 51.2-15 63.2-38.9c.8-1.6 1.8-3.1 3.1-4.5zM96 128C96 57.3 153.3 0 224 0s128 57.3 128 128v16c0 70.7-57.3 128-128 128s-128-57.3-128-128V128zm80 208v34.7c18.6 6.6 32 24.4 32 45.3c0 26.5-21.5 48-48 48s-48-21.5-48-48c0-20.9 13.4-38.7 32-45.3V339.8C80.2 354.7 32.6 411.8 32 480H416c-.5-62.4-40.4-115.4-96-135.5v25.8c23.1 6.9 40 28.3 40 53.7v24c0 8.8-7.2 16-16 16H328c-8.8 0-16-7.2-16-16s7.2-16 16-16v-8c0-13.3-10.7-24-24-24s-24 10.7-24 24v8c8.8 0 16 7.2 16 16s-7.2 16-16 16H264c-8.8 0-16-7.2-16-16V424c0-25.4 16.9-46.8 40-53.7V337c-5.6-.7-11.4-1-17.2-1H177.2l-1.2 0zm-32 80a16 16 0 1 0 32 0 16 16 0 1 0 -32 0zM0 481.2C0 383.3 79.3 304 177.2 304h93.6C368.7 304 448 383.3 448 481.2c0 17-13.8 30.8-30.8 30.8H30.8C13.8 512 0 498.2 0 481.2z"/></svg>

<svg xmlns="http://www.w3.org/2000/svg" viewBox="0 0 448 512"><path d="M96 128C96 57.31 153.3 0 224 0C294.7 0 352 57.31 352 128V144C352 214.7 294.7 272 224 272C153.3 272 96 214.7 96 144V128zM318.7 112H288.6C273.7 112 259.5 106.1 248.1 95.6L242.7 89.33C223.4 113.5 193.1 128 162.3 128H128V144C128 197 170.1 240 224 240C277 240 320 197 320 144V128C320 122.5 319.5 117.2 318.7 112V112zM251.3 52.69L271.6 72.97C276.1 77.47 282.2 80 288.6 80H307.2C290.6 51.31 259.5 32 224 32C182.2 32 146.6 58.71 133.5 96H162.3C189.1 96 213.5 80.97 225.5 57.15C226.3 55.53 227.4 54.02 228.7 52.69C234.9 46.44 245.1 46.44 251.3 52.69L251.3 52.69zM0 481.2C0 383.3 79.33 304 177.2 304H270.8C368.7 304 448 383.3 448 481.2C448 498.2 434.2 512 417.2 512H30.82C13.8 512 .0006 498.2 .0006 481.2H0zM176 370.7C194.6 377.3 208 395.1 208 416C208 442.5 186.5 464 160 464C133.5 464 112 442.5 112 416C112 395.1 125.4 377.3 144 370.7V339.8C80.18 354.7 32.55 411.8 32 480H415.1C415.5 417.6 375.6 364.6 320 344.5V370.7C338.6 377.3 352 395.1 352 416V448C352 456.8 344.8 464 336 464C327.2 464 320 456.8 320 448V416C320 407.2 312.8 400 304 400C295.2 400 288 407.2 288 416V448C288 456.8 280.8 464 272 464C263.2 464 256 456.8 256 448V416C256 395.1 269.4 377.3 288 370.7V337C282.4 336.3 276.6 336 270.8 336H177.2L175.1 336L176 370.7zM160 432C168.8 432 176 424.8 176 416C176 407.2 168.8 400 160 400C151.2 400 144 407.2 144 416C144 424.8 151.2 432 160 432z"/></svg>
